public/delete-comment.svg

<?xml version="1.0" encoding="UTF-8" standalone="no"?>
<!DOCTYPE svg PUBLIC "-//W3C//DTD SVG 1.1//EN" "http://www.w3.org/Graphics/SVG/1.1/DTD/svg11.dtd">
<!-- Created with Vectornator (http://vectornator.io/) -->
<svg height="100%" stroke-miterlimit="10" style="fill-rule:nonzero;clip-rule:evenodd;stroke-linecap:round;stroke-linejoin:round;" version="1.1" viewBox="0 0 24 24" width="100%" xml:space="preserve" xmlns="http://www.w3.org/2000/svg" xmlns:vectornator="http://vectornator.io" xmlns:xlink="http://www.w3.org/1999/xlink">
<defs/>
<g id="Untitled" vectornator:layerName="Untitled">
<path d="M9.59354 12L9.59354 18.0161" fill="none" opacity="1" stroke="#000000" stroke-linecap="round" stroke-linejoin="round" stroke-width="1.5" vectornator:layerName="path"/>
<path d="M14.4065 12L14.4065 18.0161" fill="none" opacity="1" stroke="#000000" stroke-linecap="round" stroke-linejoin="round" stroke-width="1.5" vectornator:layerName="path"/>
<path d="M2.37417 5.98385L21.6258 5.98385" fill="none" opacity="1" stroke="#000000" stroke-linecap="round" stroke-linejoin="round" stroke-width="1.5" vectornator:layerName="path"/>
<path d="M4.78063 9.59354L4.78063 19.2194C4.78063 21.213 6.39674 22.8291 8.39031 22.8291L15.6097 22.8291C17.6033 22.8291 19.2194 21.213 19.2194 19.2194L19.2194 9.59354" fill="none" opacity="1" stroke="#000000" stroke-linecap="round" stroke-linejoin="round" stroke-width="1.5" vectornator:layerName="path"/>
<path d="M8.39031 3.5774C8.39031 2.24835 9.46772 1.17094 10.7968 1.17094L13.2032 1.17094C14.5323 1.17094 15.6097 2.24835 15.6097 3.5774L15.6097 5.98385L8.39031 5.98385L8.39031 3.5774Z" fill="none" opacity="1" stroke="#000000" stroke-linecap="round" stroke-linejoin="round" stroke-width="1.5" vectornator:layerName="path"/>
</g>
</svg>

<svg xmlns="http://www.w3.org/2000/svg" xmlns:vectornator="http://vectornator.io" xml:space="preserve" stroke-miterlimit="10" style="fill-rule:nonzero;clip-rule:evenodd;stroke-linecap:round;stroke-linejoin:round" viewBox="0 0 24 24"><g vectornator:layerName="Untitled" fill="none" stroke="#000" stroke-width="1.5"><path vectornator:layerName="path" d="M9.594 12v6.016M14.406 12v6.016M2.374 5.984h19.252M4.78 9.594v9.625a3.61 3.61 0 0 0 3.61 3.61h7.22a3.61 3.61 0 0 0 3.61-3.61V9.594M8.39 3.577a2.406 2.406 0 0 1 2.407-2.406h2.406a2.406 2.406 0 0 1 2.407 2.406v2.407H8.39V3.577Z"/></g></svg>
